resources/svg/regular/building.svg

<svg xmlns="http://www.w3.org/2000/svg" fill="currentColor" stroke="none" viewBox="0 0 24 24"><path d="M18,2H6C4.897,2,4,2.897,4,4v17c0,0.552,0.447,1,1,1h14c0.553,0,1-0.448,1-1V4C20,2.897,19.103,2,18,2z M18,20H6V4h12V20z"/><path d="M8 6H11V8H8zM13 6H16V8H13zM8 10H11V12H8zM13 10.031H16V12H13zM8 14H11V16H8zM13 14H16V16H13z"/></svg>

<svg xmlns="http://www.w3.org/2000/svg" fill="currentColor" stroke="none" viewBox="0 0 24 24"><path d="M18 2H6c-1.103 0-2 .897-2 2v17a1 1 0 0 0 1 1h14a1 1 0 0 0 1-1V4c0-1.103-.897-2-2-2zm0 18H6V4h12v16z"/><path d="M8 6h3v2H8zm5 0h3v2h-3zm-5 4h3v2H8zm5 .031h3V12h-3zM8 14h3v2H8zm5 0h3v2h-3z"/></svg>
